X: 289
B: Jämför [[Notböcker/Sexdregasamlingen del 1]] nr 28 (se ovan)
B: Jämför [[http://www.smus.se/earkiv/fmk/browselarge.php?lang=sw&katalogid=MMD+20&bildnr=00019|SMUS - katalog MMD20 bild 19]] nr 36 ur [[Notböcker/Johan Anderssons notbok]]
T: Bornholm, marsch från Sexdrega
O: Sexdrega, Västergötland
S: utlärd av Eivor Erkas som har den efter [[Personer/Ditte Andersson]]
R: Marsch
M: 4/4
N: Vet ej varför den kallas Bornholm.
Z: abc-transkription av Nils L, 2008-06-04. 
N: Bindningarna är jag litet osäker på så ta dem med en nypa salt.
K: D
L: 1/8
(FG) | A2 A2 A2 (Bc) | d4> A4 | B2 d2 A2 d2 | G2 (AG) F2 A2 | (Bd)cd (Ad)cd |
((3ABA) ((3GAG) F2 {A}d2 | c2 d2 e2 f2 | g6 fe | {fg}f2 (ed) c2>d2 | d6 :: 
de | f2 f2 f2 (ed) | e2 f^g a2 ((3ABc) | d2 d2 d2 cB | c2 f2 e2 dc | B2 B2 B2 cd | A2>G2 F2 F2 | 
G2 G2 (GB)AG | F2>E2 D2 A2 | B2 d2 A2 d2 | G2 AG F2 A2 | (Bd)cd (Ad)cd | 
((3ABA) ((3GAG) F2 d2 | c2 d2 e2 f2 | g6 fe | f2 ed c2>d2 | d6 :|
(:musicend:)

(:music:)
